X: 11588
T: Eel At The Forge, The
R: reel
M: 4/4
K: Eminor
B/c/d|:~e3d BAGF|~E3F GAB/c/d|~e3d BAGF|GBAG FGAB|
~e3d BAGF|~E3F GAB/c/d|efgf edBA|GEFD E2B/c/d:|
|:~e3b gBeB|gBeg fedB|~e3b gBeB|dBAG FAB/c/d|
~e3g ~f3a|gefd edB/c/d|bgab gfed|egfa gfed:|

